X: 1669
T: Father Dollard's Hornpipe
M:4/4
L:1/8
B:O'Neill's 1669
N:"collected by Dollard"
Z:Transcribed by Nick Terhorst, nickte@microsoft.com
Z:1 beat to little in bars 8 and 16 (uncorrected)
K:D
D2 \
| D2 (3DDD DFAA | defe dcBA | FA A2BAA2 | GFEDCEA,C |
| D2(3DDD DFAA | defe dcBA | FAAA BAGE | D2(3DDDD2 :|
|: d-e \
| f>d(3dcd A>d(3dcd | f>d(3dcd bgaf | gfec Acef | (3gag b>g agfg |
| Adcd(3Bcd AF | Adcd(3Bcd A2 | Adfa gece | d2 (3ddd d2 :|


